X: 333
T:Goodnight Ginger
M:9/8
L:1/8
C:John McCusker
R:slip jig
D:John McCusker: Goodnight Ginger
Z:Devin McCabe
K:AMix
c2A ABA GAB|BcA ABA gag|f2d- ded dBA|1~G3 GFG ABd:|2~G3 GFG cde|
!|:f2d- dcd efa|~f3 ded dBA|G2G- GFG BAG|1ABA Ace age:|2~G3 GFG ABd||
